X:1
T:Title
L:1/8
Q:1/4=90
M:6/8
K:G
V:1 treble nm="Church Organ, Staff"
V:1
 A2 A B2 c | d2 c B2 A | c2 B G2 A | B3 B2 E | G2 G A2 A | B2 B G2 G | AcB A2 G | A3 A2 e | %8
w: By~Ancient~Melody * * *||||||||
 d2 c B2 A | GFE- E/ z/ EG- | GAG F2 E- | E2 E- E/ z/ EG- | GGA- A/ z/ AB- | B2 G- G/ z/ GA | %14
w: ||||||
 cBA- A/ z/ GA- | A2 A- A/ z/ AA- | AcB- B/ z/ GB- | B/A/G/F/E- E/ z/ EA- | AcB- B/ z/ GF- | %19
w: |||||
 F2 F- F/ z/ EG- | GGA- A/ z/ AB- | B2 G- G/ z/ GA | cBA- A/ z/ GA- | A2 A- A3/2 z/ z |] %24
w: |||||

